lib/flags/sz-swaziland.svg

<svg xmlns="http://www.w3.org/2000/svg" fill="none" aria-hidden="true" viewBox="0 0 42 30"><g id="Country=SZ - Swaziland, Size=sm (36x24)" filter="url(#filter0_dd_91_24869)"><g clip-path="url(#clip0_91_24869)"><g id="flag"><mask id="mask0_91_24869" width="36" height="24" x="3" y="2" maskUnits="userSpaceOnUse" style="mask-type:alpha"><rect id="mask" width="36" height="24" x="3" y="2" fill="white"/></mask><g mask="url(#mask0_91_24869)"><g id="contents"><path id="base" fill="#3D58DB" fill-rule="evenodd" d="M3 2H39V26H3V2Z" clip-rule="evenodd"/><path id="middle" fill="#C51918" stroke="#FFD018" stroke-width="2" d="M3 7H2V8V20V21H3H39H40V20V8V7H39H3Z"/><g id="mark"><g id="arrows"><g id="1"><path id="Path 298" fill="#FFD018" d="M11.0432 11.3311C10.9082 11.3311 10.7988 11.0599 10.7988 10.7254C10.7988 10.3908 10.9082 10.1196 11.0432 10.1196H30.6303C30.7652 10.1196 30.8746 10.3908 30.8746 10.7254C30.8746 11.0599 30.7652 11.3311 30.6303 11.3311H11.0432Z"/><path id="Path 299" fill="#F7FCFF" fill-rule="evenodd" d="M30.1074 10.6023L31.2448 9.3125L33.2574 10.6023L31.2448 11.926L30.1074 10.6023Z" clip-rule="evenodd"/></g><g id="2"><path id="Path 298_2" fill="#FFD018" d="M11.0432 15.3311C10.9082 15.3311 10.7988 15.0599 10.7988 14.7254C10.7988 14.3908 10.9082 14.1196 11.0432 14.1196H30.6303C30.7652 14.1196 30.8746 14.3908 30.8746 14.7254C30.8746 15.0599 30.7652 15.3311 30.6303 15.3311H11.0432Z"/><path id="Path 299_2" fill="#F7FCFF" fill-rule="evenodd" d="M30.1074 14.6023L31.2448 13.3125L33.2574 14.6023L31.2448 15.926L30.1074 14.6023Z" clip-rule="evenodd"/></g><g id="3"><path id="Path 298_3" fill="#FFD018" d="M7.88865 17.8219C7.70771 17.8219 7.56104 17.5139 7.56104 17.1341C7.56104 16.7542 7.70771 16.4463 7.88865 16.4463H34.1509C34.3318 16.4463 34.4785 16.7542 34.4785 17.1341C34.4785 17.5139 34.3318 17.8219 34.1509 17.8219H7.88865Z"/></g></g><g id="Group 6"><path id="Path 296" fill="#F7FCFF" fill-rule="evenodd" d="M12.9194 14.0528C12.9194 14.0528 16.1159 8.07275 20.6879 8.07275C25.2598 8.07275 28.5638 14.0528 28.5638 14.0528C28.5638 14.0528 24.5293 19.9542 20.7416 19.9542C16.9539 19.9542 12.9194 14.0528 12.9194 14.0528Z" clip-rule="evenodd"/><mask id="mask1_91_24869" width="17" height="12" x="12" y="8" maskUnits="userSpaceOnUse" style="mask-type:alpha"><path id="Path 296_2" fill="white" fill-rule="evenodd" d="M12.9194 14.0528C12.9194 14.0528 16.1159 8.07275 20.6879 8.07275C25.2598 8.07275 28.5638 14.0528 28.5638 14.0528C28.5638 14.0528 24.5293 19.9542 20.7416 19.9542C16.9539 19.9542 12.9194 14.0528 12.9194 14.0528Z" clip-rule="evenodd"/></mask><g mask="url(#mask1_91_24869)"><path id="Path 297" fill="#272727" fill-rule="evenodd" d="M20.9147 7.68018C20.9147 7.68018 19.8715 8.80638 20.2193 9.8803C20.567 10.9542 21.3772 10.8408 21.3772 11.7865C21.3772 12.7323 21.0029 13.6969 21.3772 13.6969C21.7514 13.6969 21.8811 14.3495 21.5391 14.792C21.197 15.2344 20.8945 15.2481 20.9147 15.9682C20.935 16.6883 22.7058 17.3952 21.8479 17.3952C20.9901 17.3952 19.8596 18.1353 20.2193 18.1353C20.579 18.1353 22.461 18.7119 22.461 19.4686C22.461 20.2254 22.461 20.831 22.461 20.831H12.6426V7.68018H20.9147Z" clip-rule="evenodd"/><path id="Combined Shape" fill="#F7FCFF" fill-rule="evenodd" d="M16.2963 11.9229H15.8076V13.6921H16.2963V11.9229ZM17.7379 11.9229H17.2492V13.6921H17.7379V11.9229ZM16.5284 11.9229H17.0171V13.6921H16.5284V11.9229ZM18.4587 11.9229H17.9701V13.6921H18.4587V11.9229ZM18.6908 11.9229H19.1795V13.6921H18.6908V11.9229ZM19.9004 11.9229H19.4117V13.6921H19.9004V11.9229ZM15.8076 14.4613H16.2963V16.2305H15.8076V14.4613ZM17.7379 14.4613H17.2492V16.2305H17.7379V14.4613ZM16.5284 14.4613H17.0171V16.2305H16.5284V14.4613ZM18.4587 14.4613H17.9701V16.2305H18.4587V14.4613ZM18.6908 14.4613H19.1795V16.2305H18.6908V14.4613ZM19.9004 14.4613H19.4117V16.2305H19.9004V14.4613Z" clip-rule="evenodd"/><path id="Combined Shape_2" fill="#272727" fill-rule="evenodd" d="M22.0995 11.9229H21.6108V13.6921H22.0995V11.9229ZM23.5411 11.9229H23.0525V13.6921H23.5411V11.9229ZM22.3317 11.9229H22.8204V13.6921H22.3317V11.9229ZM24.262 11.9229H23.7733V13.6921H24.262V11.9229ZM24.4941 11.9229H24.9828V13.6921H24.4941V11.9229ZM25.7036 11.9229H25.2149V13.6921H25.7036V11.9229ZM21.6108 14.4613H22.0995V16.2305H21.6108V14.4613ZM23.5411 14.4613H23.0525V16.2305H23.5411V14.4613ZM22.3317 14.4613H22.8204V16.2305H22.3317V14.4613ZM24.262 14.4613H23.7733V16.2305H24.262V14.4613ZM24.4941 14.4613H24.9828V16.2305H24.4941V14.4613ZM25.7036 14.4613H25.2149V16.2305H25.7036V14.4613Z" clip-rule="evenodd"/><path id="Path 300" fill="#3D58DB" fill-rule="evenodd" d="M17.8854 9.07145C17.2009 9.25998 16.8876 10.8558 16.9641 11.2415C17.0406 11.6272 17.2729 11.1931 17.2729 11.1931C17.2729 11.1931 17.7466 12.1082 17.7954 12.3544C17.8443 12.6006 18.0937 11.9823 18.0937 11.9823C18.0937 11.9823 18.9153 12.4854 19.0265 13.046C19.1377 13.6066 19.305 12.4045 19.305 12.4045C19.305 12.4045 19.4911 12.3753 19.4911 12.3753C19.4911 12.3753 19.3734 11.7817 19.3734 11.7817L19.7283 12.0515L19.6188 11.4994C19.6188 11.4994 19.8861 11.81 19.8183 11.4682C19.7505 11.1264 19.7126 10.9356 19.7126 10.9356L19.62 10.4684L19.9713 10.4134C19.9713 10.4134 18.57 8.88292 17.8854 9.07145Z" clip-rule="evenodd"/></g></g><path id="Path 300_2" fill="#3D58DB" fill-rule="evenodd" d="M32.3493 15.6959C31.6383 15.7759 31.0181 17.2991 31.0181 17.6908C31.0181 18.0825 31.3316 17.6908 31.3316 17.6908C31.3316 17.6908 31.6193 18.6651 31.6193 18.9151C31.6193 19.1651 31.9858 18.5947 31.9858 18.5947C31.9858 18.5947 32.6966 19.217 32.6966 19.7862C32.6966 20.3555 33.0962 19.1974 33.0962 19.1974C33.0962 19.1974 33.2852 19.1974 33.2852 19.1974C33.2852 19.1974 33.2852 18.5947 33.2852 18.5947L33.582 18.9151V18.3546C33.582 18.3546 33.7846 18.7016 33.7846 18.3546C33.7846 18.0075 33.7846 17.8138 33.7846 17.8138V17.3394H34.1413C34.1413 17.3394 33.0603 15.6159 32.3493 15.6959Z" clip-rule="evenodd"/><path id="Path 300_3" fill="#3D58DB" fill-rule="evenodd" d="M9.2918 15.465C10.0028 15.545 10.623 17.0682 10.623 17.4599C10.623 17.8515 10.3095 17.4599 10.3095 17.4599C10.3095 17.4599 10.0218 18.4342 10.0218 18.6842C10.0218 18.9342 9.65534 18.3637 9.65534 18.3637C9.65534 18.3637 8.94449 18.986 8.94449 19.5553C8.94449 20.1245 8.54493 18.9665 8.54493 18.9665C8.54493 18.9665 8.35595 18.9665 8.35595 18.9665C8.35595 18.9665 8.35595 18.3637 8.35595 18.3637L8.05911 18.6842V18.1236C8.05911 18.1236 7.85652 18.4707 7.85652 18.1236C7.85652 17.7766 7.85652 17.5828 7.85652 17.5828V17.1085H7.49979C7.49979 17.1085 8.58081 15.385 9.2918 15.465Z" clip-rule="evenodd"/></g></g></g></g></g></g><defs><filter id="filter0_dd_91_24869" width="42" height="30" x="0" y="0" color-interpolation-filters="sRGB" filterUnits="userSpaceOnUse"><feFlood flood-opacity="0" result="BackgroundImageFix"/><feColorMatrix in="SourceAlpha" result="hardAlpha" values="0 0 0 0 0 0 0 0 0 0 0 0 0 0 0 0 0 0 127 0"/><feOffset dy="1"/><feGaussianBlur stdDeviation="1"/><feColorMatrix values="0 0 0 0 0.0627451 0 0 0 0 0.0941176 0 0 0 0 0.156863 0 0 0 0.06 0"/><feBlend in2="BackgroundImageFix" result="effect1_dropShadow_91_24869"/><feColorMatrix in="SourceAlpha" result="hardAlpha" values="0 0 0 0 0 0 0 0 0 0 0 0 0 0 0 0 0 0 127 0"/><feOffset dy="1"/><feGaussianBlur stdDeviation="1.5"/><feColorMatrix values="0 0 0 0 0.0627451 0 0 0 0 0.0941176 0 0 0 0 0.156863 0 0 0 0.1 0"/><feBlend in2="effect1_dropShadow_91_24869" result="effect2_dropShadow_91_24869"/><feBlend in="SourceGraphic" in2="effect2_dropShadow_91_24869" result="shape"/></filter><clipPath id="clip0_91_24869"><rect width="36" height="24" x="3" y="2" fill="white" rx="2"/></clipPath></defs></svg>

<svg xmlns="http://www.w3.org/2000/svg" fill="none" aria-hidden="true" viewBox="0 0 42 30"><g filter="url(#a)"><g clip-path="url(#b)"><mask id="c" width="36" height="24" x="3" y="2" maskUnits="userSpaceOnUse" style="mask-type:alpha"><path fill="#fff" d="M3 2h36v24H3z"/></mask><g mask="url(#c)"><path fill="#3D58DB" fill-rule="evenodd" d="M3 2h36v24H3V2Z" clip-rule="evenodd"/><path fill="#C51918" stroke="#FFD018" stroke-width="2" d="M3 7H2v14h38V7H3Z"/><path fill="#FFD018" d="M11.043 11.331c-.135 0-.244-.271-.244-.606 0-.334.11-.605.244-.605H30.63c.135 0 .245.27.245.605 0 .335-.11.606-.245.606H11.043Z"/><path fill="#F7FCFF" fill-rule="evenodd" d="m30.107 10.602 1.138-1.29 2.012 1.29-2.012 1.324-1.138-1.324Z" clip-rule="evenodd"/><path fill="#FFD018" d="M11.043 15.331c-.135 0-.244-.271-.244-.606 0-.334.11-.605.244-.605H30.63c.135 0 .245.27.245.605 0 .335-.11.606-.245.606H11.043Z"/><path fill="#F7FCFF" fill-rule="evenodd" d="m30.107 14.602 1.138-1.29 2.012 1.29-2.012 1.324-1.138-1.324Z" clip-rule="evenodd"/><path fill="#FFD018" d="M7.889 17.822c-.181 0-.328-.308-.328-.688 0-.38.147-.688.328-.688H34.15c.18 0 .327.308.327.688 0 .38-.146.688-.327.688H7.889Z"/><path fill="#F7FCFF" fill-rule="evenodd" d="M12.92 14.053s3.196-5.98 7.768-5.98c4.572 0 7.876 5.98 7.876 5.98s-4.035 5.901-7.822 5.901c-3.788 0-7.823-5.901-7.823-5.901Z" clip-rule="evenodd"/><mask id="d" width="17" height="12" x="12" y="8" maskUnits="userSpaceOnUse" style="mask-type:alpha"><path fill="#fff" fill-rule="evenodd" d="M12.92 14.053s3.196-5.98 7.768-5.98c4.572 0 7.876 5.98 7.876 5.98s-4.035 5.901-7.822 5.901c-3.788 0-7.823-5.901-7.823-5.901Z" clip-rule="evenodd"/></mask><g fill-rule="evenodd" clip-rule="evenodd" mask="url(#d)"><path fill="#272727" d="M20.915 7.68s-1.043 1.126-.696 2.2c.348 1.074 1.158.96 1.158 1.906s-.374 1.91 0 1.91.504.654.162 1.096c-.342.442-.645.456-.624 1.176.02.72 1.79 1.427.933 1.427-.858 0-1.988.74-1.629.74.36 0 2.242.577 2.242 1.334v1.362h-9.818V7.681h8.272Z"/><path fill="#F7FCFF" d="M16.296 11.923h-.488v1.77h.488v-1.77Zm1.442 0h-.489v1.77h.489v-1.77Zm-1.21 0h.49v1.77h-.49v-1.77Zm1.93 0h-.488v1.77h.489v-1.77Zm.233 0h.489v1.77h-.49v-1.77Zm1.21 0h-.49v1.77h.49v-1.77Zm-4.093 2.538h.488v1.77h-.488v-1.77Zm1.93 0h-.489v1.77h.489v-1.77Zm-1.21 0h.49v1.77h-.49v-1.77Zm1.93 0h-.488v1.77h.489v-1.77Zm.233 0h.489v1.77h-.49v-1.77Zm1.21 0h-.49v1.77h.49v-1.77Z"/><path fill="#272727" d="M22.1 11.923h-.49v1.77h.49v-1.77Zm1.441 0h-.489v1.77h.49v-1.77Zm-1.21 0h.49v1.77h-.49v-1.77Zm1.931 0h-.489v1.77h.489v-1.77Zm.232 0h.489v1.77h-.489v-1.77Zm1.21 0h-.49v1.77h.49v-1.77ZM21.61 14.46h.488v1.77h-.488v-1.77Zm1.93 0h-.489v1.77h.49v-1.77Zm-1.21 0h.49v1.77h-.49v-1.77Zm1.931 0h-.489v1.77h.489v-1.77Zm.232 0h.489v1.77h-.489v-1.77Zm1.21 0h-.49v1.77h.49v-1.77Z"/><path fill="#3D58DB" d="M17.885 9.071c-.684.189-.997 1.785-.92 2.17.076.386.308-.048.308-.048s.474.915.522 1.161c.05.247.299-.372.299-.372s.821.503.932 1.064c.112.56.279-.641.279-.641l.186-.03-.118-.593.355.27-.11-.553s.268.311.2-.03l-.105-.533-.093-.468.351-.055s-1.401-1.53-2.086-1.342Z"/></g><path fill="#3D58DB" fill-rule="evenodd" d="M32.35 15.696c-.712.08-1.332 1.603-1.332 1.995 0 .392.314 0 .314 0s.287.974.287 1.224.367-.32.367-.32.71.622.71 1.191c0 .57.4-.589.4-.589h.19v-.602l.296.32v-.56s.203.347.203 0v-1.016h.356s-1.08-1.723-1.792-1.643Zm-23.058-.231c.71.08 1.331 1.603 1.331 1.995 0 .392-.313 0-.313 0s-.288.974-.288 1.224-.367-.32-.367-.32-.71.622-.71 1.191c0 .57-.4-.588-.4-.588h-.189v-.603l-.297.32v-.56s-.202.347-.202 0v-1.015H7.5s1.08-1.724 1.792-1.644Z" clip-rule="evenodd"/></g></g></g><defs><clipPath id="b"><rect width="36" height="24" x="3" y="2" fill="#fff" rx="2"/></clipPath><filter id="a" width="42" height="30" x="0" y="0" color-interpolation-filters="sRGB" filterUnits="userSpaceOnUse"><feFlood flood-opacity="0" result="BackgroundImageFix"/><feColorMatrix in="SourceAlpha" result="hardAlpha" values="0 0 0 0 0 0 0 0 0 0 0 0 0 0 0 0 0 0 127 0"/><feOffset dy="1"/><feGaussianBlur stdDeviation="1"/><feColorMatrix values="0 0 0 0 0.0627451 0 0 0 0 0.0941176 0 0 0 0 0.156863 0 0 0 0.06 0"/><feBlend in2="BackgroundImageFix" result="effect1_dropShadow_91_24869"/><feColorMatrix in="SourceAlpha" result="hardAlpha" values="0 0 0 0 0 0 0 0 0 0 0 0 0 0 0 0 0 0 127 0"/><feOffset dy="1"/><feGaussianBlur stdDeviation="1.5"/><feColorMatrix values="0 0 0 0 0.0627451 0 0 0 0 0.0941176 0 0 0 0 0.156863 0 0 0 0.1 0"/><feBlend in2="effect1_dropShadow_91_24869" result="effect2_dropShadow_91_24869"/><feBlend in="SourceGraphic" in2="effect2_dropShadow_91_24869" result="shape"/></filter></defs></svg>
